!!!!SEGMENT: 024-1d-W-004.krn
!!!COM: Chopin, Fryderyk
!!!OTL: Mazurka N°. 4.
!!!OPS: Op. 24
!!!PTL: Souvenir de la Pologne, 4th Set of Mazurkas
!!!PPR: Wessel
!!!PPP: London
!!!AGN: Mazurka
!!!NIFC-rismID: 1001015163
!!!NIFC-shelfmark: PL-Wbfc 4976/n
!!!OMD: MODERATO. ([quarter]=132.)
**kern	**kern	**dynam
*part1	*part1	*part1
*staff2	*staff1	*
*clefF4	*clefG2	*
*k[b-e-a-d-g-]	*k[b-e-a-d-g-]	*
*b-:	*b-:	*
*M3/4	*M3/4	*
*MM132	*MM132	*
*>A	*	*
*	*^	*
4r	4ryy	(<[4f\	p
=1	=1	=1	=1
2.r	(2ff	4.f]	.
.	.	4f	.
.	4ff	.	.
.	.	[>8f	.
=2	=2	=2	=2
2.r	2een	4.f]	.
.	.	4f#	.
.	4ee	.	.
.	.	[>8f#	.
=3	=3	=3	=3
2.r	2ee-	4.f#X]	.
.	.	4g-	.
.	4ee-	.	.
.	.	[>8g-	.
=4	=4	=4	=4
2.r	2ddn	4.g-]	.
.	.	4g#	.
.	4dd	.	.
.	.	[8g#	.
=5	=5	=5	=5
!	!LO:TX:b:i:t=poco a poco	!	!
*ped	*	*	*
4FF	2dd-X^	4.g#X])	.
4e- 4F	.	.	.
.	.	4an	.
*Xped	*	*	*
4e- 4F	[4dd-^	.	.
.	.	8a	.
!!LO:LB:g=original
=6	=6	=6	=6
4BB-	2dd-])	(>8.anL	.
.	.	16b-Jk)	.
4d- 4F	.	4b-'>	.
4d- 4Gn 4E-	4ryy	[4b-^	.
=7	=7	=7	=7
!	!LO:TX:b:i:t=Cre _ :problem:dynamics with extention lines	!	!
*ped	*	*	*
4AA-	2ff	4.b-]	.
4g- 4A-	.	.	.
.	.	4cc	.
*Xped	*	*	*
4g- 4A-	[4ff	.	.
.	.	8cc	.
=8	=8	=8	=8
!	!LO:TX:b:i:t=scen _ :problem:dynamics with extention lines	!	!
4D-	2ff]	(>8.ccL	.
.	.	16dd-Jk)	.
4f 4A-	.	4dd-'>	.
4f 4B- 4Gn	4ryy	[4dd-^<	.
=9	=9	=9	=9
!	!LO:TX:b:i:t=do ... :problem:dynamics with extention dots	!	!
*ped	*	*	*
4C	(2aa-	4.dd-]	.
*clefG2	*	*	*
4b- 4f 4c	.	.	.
.	.	4een	.
*Xped	*	*	*
4b- 4gn 4c	[4aa-	.	.
.	.	8ee	.
=10	=10	=10	=10
*^	*	*	*
4ryy	(>2.F	2aa-])	(>8.eenL	.
.	.	.	16ffJk)	.
*ped	*	*	*	*
4a- 4c)	.	.	4ff	.
*Xped	*	*	*	*
4a- 4c	.	4ryy	4fff^ 4ff	.
*v	*v	*	*	*
*clefF4	*	*	*
=11	=11	=11	=11
*ped	*	*	*
4FF'	2aanX	(>8.fffL 8.ff	ff
.	.	16ggg-Jk 16gg-)	.
*clefG2	*	*	*
(4an 4e- 4c	.	4ggg-'> 4gg-	.
*Xped	*	*	*
4cc 4e-)	4ryy	4an^	.
*	*v	*v	*
*clefF4	*	*
!!LO:LB:g=original
=12	=12	=12
*ped	*	*
4BB-'	(4.ccc 4.cc	>
4d- 4F	.	.
.	8bb-L 8b-	.
*Xped	*	*
4d- 4F	8a-X	.
.	8g-J)	]
=13	=13	=13
*	*^	*
*ped	*	*	*
4BB-'	(4.dd-	4.f	p
4e- 4F	.	.	.
.	8anL	8g-L	.
*Xped	*	*	*
4e- 4F	8dd-	8f	.
.	8aJ)	8e-J	.
=14	=14	=14	=14
4BB-'	(8.anL	8.e-L	.
.	16b-Jk	16d-Jk	.
4B- 4F	4b-)	4d-	.
4d- 4E-	4b-^	4gn	.
=15	=15	=15	=15
*ped	*	*	*
4AA-'	(4.ff	4.a-	<
4g- 4A-	.	.	.
.	8ccL	8b--L	.
*Xped	*	*	*
4g- 4A-	8ff	8a-	.
.	8ccJ	8g-J	.
=16	=16	=16	=16
4D-'	8.ccL	8.g-X^L	.
.	16dd-Jk	16fJk	.
4d- 4A-	4dd-)	4f	.
4f 4Gn	4dd-^	4bn	.
!!LO:LB:g=original
=17	=17	=17	=17
*ped	*	*	*
4C'	(4.aa-	4.cc	.
*clefG2	*	*	*
4b- 4c	.	.	.
.	8eenL	8dd-XL	.
*Xped	*	*	*
4b- 4c	8aa-	8cc	.
.	8eeJ	8b-J	.
*clefF4	*	*	*
=18	=18	=18	=18
*^	*	*	*
4r	2F	8.eenL	8.b-L	.
.	.	16ffJk	16anJk	.
4e- 4c	.	4ff)	4a	.
4an/ 4c/ 4e-/	4ryy	4ryy	(4fff^< 4ff	.
*v	*v	*	*	*
*	*v	*v	*
=19	=19	=19
*ped	*	*
4FF	8.aaa-XL 8.aa-X	ff
.	16ggg-Jk 16gg-)	.
*clefG2	*	*
4cc 4an 4e- 4c	4ggg-' 4gg-	.
*clefF4	*	*
!	!	!LO:DY:b
4e- 4c 4F	4an^	.
=20	=20	=20
4BB-	[2.b-	.
4d- 4F	.	.
4d- 4G-X 4E-	.	.
=21!|:	=21!|:	=21!|:
*>B	*	*
!	!LO:TX:b:i:t=Dolce.	!
4AA-'	8b-L]	.
.	16r	.
.	(16a-k 16g-	.
4A- 4E-	8c	.
.	8a-J 8g-	.
4c 4A- 4E-	4ee-^)	.
!!LO:LB:g=original
=22	=22	=22
*ped	*	*
4DD-	8b-'L	.
.	16r	.
.	(16a-k 16f	.
4A- 4F	8d-	.
.	8a-J 8f	.
*Xped	*	*
4d- 4A- 4F	4ff^>)	.
=23	=23	=23
*	*^	*
*ped	*	*	*
4AA-	8b-L	4ryy	.
.	16r	.	.
.	(16a-k 16g-	.	.
4A- 4E-	8c	4c	.
.	8a-J 8g-	.	.
*Xped	*	*	*
4c 4A- 4E-	4gg-^>)	4ryy	.
*	*v	*v	*
=24	=24	=24
.	16qqf/ 16qqcc-/ 16qqdd-/	.
*ped	*	*
4D-	[4bb-^<	.
4f 4c- 4A-	8bb-L]	.
.	16r	.
!	!LO:TX:a:i:t=scherz.	!
.	(16aa-k	.
*Xped	*	*
(4Dn	8.cc-^<)	.
.	(16aa-Jk	.
=25	=25	=25
4E-)	8..b-L)	.
.	(32aa-kk	.
4e- 4B- 4G-	8..b-)	.
.	(32aa-kk	.
(4GG-	8..b-)	.
.	(32gg-Jkk	.
=26	=26	=26
4AA-)	8..b--L)	.
.	(32gg-kk	.
4d- 4F	8..a-)	.
.	(32gg-kk	.
4d- 4F	8..a-)	.
.	(32ffJkk	.
!!LO:LB:g=original
=27	=27	=27
*ped	*	*
4AA-'	8..gnL)	.
.	(32ffkk	.
4c 4A- 4E-	8..g-)	.
.	(32ffkk	.
*Xped	*	*
4c 4A- 4E-	8..g-)	.
.	(32ee-Jkk	.
=28	=28	=28
*^	*^	*
4r	2D-	&(8..fL	4f)	.
.	.	32ee-Jkk	.	.
4d- 4A-	.	12dd-L	4f	.
.	.	12ee-	.	.
.	.	12dd-J	.	.
(4GG/	4ryy	8ccL	4en^	.
.	.	16r	.	.
.	.	16b-Jk	.	.
*v	*v	*	*	*
=29	=29	=29	=29
*ped	*	*	*
4AA-)	8b-L&)	4c	.
.	16r	.	.
.	(16a-k 16g-	.	.
4A- 4E-	8c	4c	.
.	8a-J 8g-	.	.
*Xped	*	*	*
4c 4A- 4E-	4ee-^>)	4ryy	.
*	*v	*v	*
=30	=30	=30
*ped	*	*
4DD-	8b-L	.
.	16r	.
.	(16a-k 16f	.
4A- 4F	8d-	.
.	8a-J 8f	.
*Xped	*	*
4d- 4A- 4F	4ff^>)	.
=31	=31	=31
*ped	*	*
4AA-	8b-L	.
.	16r	.
.	(16a-k 16g-	.
4A- 4E-	8c	.
.	8a-J 8g-	.
*Xped	*	*
4c 4A- 4E-	4gg-^>)	.
!!LO:PB:g=original
=32	=32	=32
.	16qqf/ 16qqcc-/ 16qqdd-/	f
*ped	*	*
4D-	[4bb-^<	.
4f 4c- 4A-	8bb-L]	.
.	16r	.
.	(16aa-k	.
*Xped	*	*
(4Dn	8.cc-^<)	.
.	(16aa-Jk	.
=33	=33	=33
4E-)	8..b-L)	>
.	(32aa-kk	.
4e- 4B- 4G-	8..b-)	.
.	(32aa-kk	.
(4GG-	8..b-)	.
.	(32gg-Jkk	.
=34	=34	=34
4AA-)	8..b--L)	.
.	(32gg-kk	.
4d- 4F	8..a-)	.
.	(32gg-kk	.
4d- 4F	8..a-)	.
.	(32ffJkk	.
=35	=35	=35
!	!LO:TX:a:i:t=Accellerando.	!
4AA-	8..gnL)	.
.	(32eenkk	.
4c 4E-	8..g-)	.
.	(32ee-kk	.
4r	8..f)	.
.	(32ddnJkk	.
=36	=36	=36
!	!LO:TX:a:i:t=Ritenuto.	!
2.r	8..f-\L)	.
.	(32dd-kk	.
.	8..e-X)	.
.	(32dd-kk	.
.	8..e-)	.
.	(<[>32dd-Jkk	.
!!LO:LB:g=original
=37	=37	=37
*	*^	*
!	!LO:TX:b:i:t=A tempo.	!	!
*ped	*	*	*
4FF'	&(4.dd-^]	4.e-)	.
4c 4F	.	.	.
.	8anL	8g-L	.
*Xped	*	*	*
4c 4F	8dd-	8f	.
.	8aJ	8e-J	.
=38	=38	=38	=38
4BB-'	8.anL	8.e-^L	.
.	16b-Jk	16d-Jk	.
4B- 4F	4b-'>&)	4d-	.
!	!LO:TX:b:i:t=Cre _:problem:dynamics with extention lines	!	!
4d- 4E-	4b-^	4gn	.
=39	=39	=39	=39
*ped	*	*	*
4AA-'	(4.ff	4.a-	.
4g- 4A-	.	.	.
.	8ccL	8b--L	.
*Xped	*	*	*
4g- 4A-	8ff	8a-	.
.	8ccJ	8g-J	.
=40	=40	=40	=40
!	!LO:TX:b:i:t=scen _:problem:dynamics with extention lines	!	!
4D-	8.ccL	8.g-L	.
.	16dd-Jk	16fJk	.
4d- 4A-	4dd-')	4f	.
4f 4Gn	(4dd-^	4bn	.
=41	=41	=41	=41
*ped	*	*	*
4C	4.aa-	4.cc	.
*clefG2	*	*	*
4b- 4c	.	.	.
.	8eenL	8dd-L	.
4b- 4c	8aa-	8cc	.
*Xped	*	*	*
.	8eeJ	8b-J	.
!!LO:LB:g=original
=42	=42	=42	=42
!	!LO:TX:b:i:t=do ...:problem:dynamics with extention dots	!	!
*^	*	*	*
4r	(2.F	8.eenL	8.b-L	.
.	.	16ffJk	16anJk	.
4f 4c	.	4ff)	4a	.
4an 4c)	.	4ryy	(>[>4fff [4ff	ff
*v	*v	*	*	*
*	*v	*v	*
*clefF4	*	*
=43	=43	=43
*ped	*	*
4FF'	8.fffL] 8.ff]	.
.	16ggg-Jk 16gg-	.
*clefG2	*	*
4an^ 4e- 4c	4ggg- 4gg-)	.
*Xped	*	*
4cc 4e-	(<4an^>	p
*clefF4	*	*
=44	=44	=44
*ped	*	*
4BB-	4.cc/	>
4d- 4F	.	.
.	8b-/	.
*Xped	*	*
4d- 4F	(12b-L	.
.	12a-	.
.	12g-J))	]
=45	=45	=45
*	*^	*
*ped	*	*	*
4BB-'	(4.dd-	8fL	.
.	.	16qqa-/	.
.	.	8g-	.
4e- 4c 4F	.	8f	.
!	!LO:TX:a:i:t=Piu agitato e stretto.	!	!
.	8anL	8g-	.
*Xped	*	*	*
4e- 4c 4F	8dd-	8f	.
.	8aJ	8e-J	.
=46	=46	=46	=46
4BB-	8.anL	8.e-^L	.
.	16b-Jk	16d-Jk	.
4B- 4F	4b-)	4d-	.
4d- 4E-	(12b-L	4gn^	.
.	12cc	.	.
.	12b-J)	.	.
!!LO:LB:g=original
=47	=47	=47	=47
*ped	*	*	*
4AA-	(4.ff	8a-L	<
.	.	16qqcc-/	.
.	.	8b--	.
4g- 4c 4A-	.	8a-	.
.	8ccnL	8b--	.
*Xped	*	*	*
4g- 4c 4A-	8ff	8a-	.
.	8ccJ	8g-J	.
=48	=48	=48	=48
4D-'	8.ccL	8.g-^L	.
.	16dd-Jk	16fJk	.
4d- 4A-	4dd-)	4f	.
4f 4Gn	(12dd-L	4bn^	.
.	12ee-	.	.
.	12dd-J)	.	.
=49	=49	=49	=49
*ped	*	*	*
!!missing dot
4C	(4.aa-	8ccL	.
.	.	16qqee-/	.
.	.	8dd-	.
*clefG2	*	*	*
4b- 4gn 4c	.	8cc	.
.	8eenL	8dd-	.
*Xped	*	*	*
4b- 4g 4c	8aa-	8cc	.
.	8eeJ	8b-J	.
*clefF4	*	*	*
=50	=50	=50	=50
*^	*	*	*
4r	2F	8.eenL	8.b-L	.
.	.	16ffJk)	16anJk	.
4f 4c	.	4ff	4a	.
4an 4c	4F	4ryy	(4fff 4ff	.
*v	*v	*	*	*
*	*v	*v	*
=51	=51	=51
*ped	*	*
4FF	8.aaa-XL 8.aa-X	ff
.	16ggg-Jk 16gg-	.
*clefG2	*	*
4cc 4an 4e- 4c	4ggg- 4gg-)	.
*Xped	*	*
*clefF4	*	*
4e- 4c 4F	(4an	.
!!LO:LB:g=original
=52	=52	=52
*>B1	*	*
4BB-\	(2.b-)	.
!!LO:TX:a:B:t=1°.
4d- 4F	.	.
4d-^ 4G-X 4E-	.	.
=53:|!	=53:|!	=53:|!
*>B2	*	*
4BB-\	2b-)	.
!!LO:TX:a:B:t=2°.
4d- 4F	.	.
[4f	4ff^<	p
=54!|:	=54!|:	=54!|:
*>C	*	*
!	!LO:TX:a:i:t=Legato.	!
!	!LO:TX:b:i:t=sotto voce.	!
4f]	(4ff	.
4.g-	4.gg-	.
8d-	8dd-	.
=55	=55	=55
8enL	8eenL	.
8cJ	8ccJ	.
4B-	4b-	.
4B-	4b-	.
=56	=56	=56
8fL	8ffL	.
8a-J	8aa-J	.
4g-	4gg-	.
8g-L	8gg-L	.
8d-J	8dd-J	.
=57	=57	=57
8enL	8eenL	.
8cJ	8ccJ	.
2B-	[>2b-)	.
!!LO:LB:g=original
=58	=58	=58
4c 4Gn 4C	4b-^] 4en 4B-	.
4c 4F 4C	4an 4f 4An	.
4c 4F 4C	(4a 4f 4A	.
=59	=59	=59
4c 4Gn 4C	8ccL 8en	.
.	8b-J 8B-	.
4c 4F 4C	4an 4f 4An	.
4c 4F 4C	4a 4f 4A)	.
=60	=60	=60
4c 4Gn 4C	(4b- 4en 4B-	.
4c 4F 4C	4an 4f 4An)	.
4c 4F 4C	(>4a 4f 4A	.
=61	=61	=61
*>C1	*	*
*	*^	*
!	!	!	!LO:HP:a
4c 4Gn 4C	8an^L	4en 4B-	.
!!LO:TX:a:B:t=1a.
.	8gnJ	.	.
2c 2F	2f)	2An	.
=62:|!	=62:|!	=62:|!	=62:|!
*>C2	*	*	*
4c 4G- 4C	8an^L	4en 4B-	.
!!LO:TX:a:B:t=2a.
.	8g-J	.	.
4c 4F	4f	4An	.
4r	[4f^	4ryy	f
*	*v	*v	*
!!LO:PB:g=original
=63	=63	=63
*>D	*	*
!	!LO:TX:a:i:t=Con Anima	!
*ped	*	*
4GG-X	(12fL]	.
.	12g-X	.
.	12fJ)	.
4B- 4E-	(<8e-L	.
.	8f	.
*Xped	*	*
4B- 4E-	8g-	.
.	8a-J	.
=64	=64	=64
*ped	*	*
4GG-	8cc)	.
.	8r	.
4B- 4E-	(>2b-	.
*Xped	*	*
4B- 4E-	.	.
=65	=65	=65
*ped	*	*
4AA-'	8A-vL)	.
.	16r	.
.	(16g-Jk	.
4c 4E-	(12g-L	.
.	12a-	.
.	12g-J)	.
*Xped	*	*
4c 4E-	8fL	.
.	8e-J	.
=66	=66	=66
*ped	*	*
4DD-	8f)	.
.	8r	.
4A- 4F	4d-^	.
*Xped	*	*
4A- 4F	4r	.
!!LO:LB:g=original
=67	=67	=67
*ped	*	*
4GG-'	(<12fL	pp
.	12g-	.
.	12fJ	.
4B-- 4E-	8e-L	.
.	8f	.
*Xped	*	*
4B-- 4E-	8g-	.
.	8a-J	.
=68	=68	=68
*ped	*	*
4GG-'	8cc-/)	.
.	8r	.
4d- 4E-	(2b--^>/	.
*Xped	*	*
4d- 4E-	.	.
=69	=69	=69
*ped	*	*
4AA-	8A-L)	.
.	16r	.
.	(16g-Jk	.
4c 4G- 4E-	12g-L	.
.	12a-	.
.	12g-J	.
*Xped	*	*
4c 4G- 4E-	8f-L	.
.	8e-J	.
!!LO:LB:g=original
=70	=70	=70
*ped	*	*
4DD-	8f-)	.
.	8r	.
4A- 4F-	4d-^	.
*Xped	*	*
4A- 4F-	4r	.
=71	=71	=71
*ped	*	*
4AAn'	(<12g#L	f
.	12an	.
.	12g#J	.
4en 4c# 4F#	8f#L	.
.	8g#	.
4e 4c# 4F#	8a	.
.	8bnJ	.
=72	=72	=72
4AAn	8dd#)	.
.	8r	.
4en 4c# 4F#	(2cc#^<	.
*Xped	*	*
4e 4c# 4F#	.	.
=73	=73	=73
*ped	*	*
4BBn'	8BnL)	.
.	16r	.
.	(16anJk	.
4d# 4An 4F#	(12aL	.
.	12bn	.
.	12aJ)	.
*Xped	*	*
4d# 4A 4F#	8g#L	.
.	8f#J	.
=74	=74	=74
*ped	*	*
4EEn'	8g#')	.
.	8r	.
4Bn 4G#	4en^	.
*Xped	*	*
4B 4G#	4r	.
=75	=75	=75
*ped	*	*
4GG-'	(<12f-L	pp
!	!LO:TX:a:i:t=Dolciss.	!
.	12g-	.
.	12f-J	.
4B-- 4E-	8e-L	<
.	8f-	.
*Xped	*	*
4B-- 4E-	8g-	.
.	8a-J	[
=76	=76	=76
*	*	*^
*ped	*	*	*
!	!	!	!LO:DY:b
4GG-'	2cc-	>	p
4d- 4E-	.	.	.
*Xped	*	*	*
4d- 4E-	(<4b--)	]	.
*	*	*v	*v
!!LO:LB:g=original
=77	=77	=77
*ped	*	*
4AA-	(>8A-'L)	<
.	16r	.
.	16g-Jk	.
!	!LO:TX:a:i:t=riten.	!
4c 4E-	&(12g-L	.
.	12a-	.
.	12g-J	<
4c 4E-	8fnL	.
.	8e-J	[
=78	=78	=78
4AA-	2b-/)	>
4c 4G- 4E-	.	.
*Xped	*	*
4c 4G- 4E-	4a-&)	]
=79	=79	=79
!	!LO:TX:a:i:t=A tempo.	!
*ped	*	*
4AAA-	(<12fL	ff
.	12g-	.
.	12fJ	.
4c 4G- 4E-	8e-L	.
.	8f	.
4c 4G- 4E-	8g-	.
.	8a-J	.
=80	=80	=80
4AA-	8cc/)	.
.	8r	.
4c 4G- 4E-	(2b-^>/	.
4c 4G- 4E-	.	.
=81	=81	=81
4AA-	8A-'L)	.
.	16r	.
.	(16g-Jk	.
.	16qqg-/	.
4c 4G- 4E-	(12g-L	.
.	12a-	.
.	12g-J)	.
*Xped	*	*
4c 4G- 4E-	8fL	.
.	8e-J	.
=82	=82	=82
*ped	*	*
4DD-	8f)	.
.	8r	.
4A- 4F	4d-^	.
*Xped	*	*
4A- 4F	4r	.
=83	=83	=83
*ped	*	*
4GG-	(12fL	pp
.	12g-	.
.	12fJ	.
4B-- 4E-	8e-L	.
.	8f	.
*Xped	*	*
4B-- 4E-	8g-	.
.	8a-J	.
!!LO:LB:g=original
=84	=84	=84
*ped	*	*
4GG-	8cc-\)	.
.	8r	.
4d- 4E-	(2b--^>\	.
*Xped	*	*
4d- 4E-	.	.
=85	=85	=85
*ped	*	*
4AA-	8A-L)	.
.	16r	.
.	(16g-Jk	.
.	16qqg-/	.
4cn 4G- 4E-	(12g-L	.
.	12a-	.
.	12g-J)	.
*Xped	*	*
4c 4G- 4E-	8f-L	.
.	8e-J	.
=86	=86	=86
*ped	*	*
4DD-	8f-')	.
.	8r	.
4A- 4F-	4d-^	.
*Xped	*	*
4A- 4F-	4r	.
=87	=87	=87
.	16qqg#/	ff
!	!LO:TX:a:i:t=Con Forza.	!
*ped	*	*
4AAn'	(<12g#L	.
.	12an	.
.	12g#J	.
4en 4c# 4F#	8f#L	.
.	8g#	.
4e 4c# 4F#	8a	.
.	8bnJ	.
=88	=88	=88
4AAn	8dd#\)	.
.	8r	.
4en 4c# 4F#	(2cc#^	.
*Xped	*	*
4e 4c# 4F#	.	.
=89	=89	=89
*ped	*	*
4BBn	8BnL)	.
.	16r	.
.	(16anJk	.
.	16qqa/	.
4d# 4An 4F#	(12aL	.
.	12bn	.
.	12aJ)	.
*Xped	*	*
4d# 4A 4F#	8g#L	.
.	8f#J	.
=90	=90	=90
*ped	*	*
4EEn	8g#)	.
.	8r	.
4Bn 4G#	4en	.
*Xped	*	*
4B 4G#	4r	.
!!LO:LB:g=original
=91	=91	=91
.	16qqf-/	pp
!	!LO:TX:a:i:t=sotto voce.	!
*ped	*	*
4GG-	(4f-T	.
4B-- 4E-	8e-L	.
.	8f-	.
4B-- 4E-	8g-	.
.	8a-J)	.
=92	=92	=92
4GG-	(2cc-	>
4d- 4E-	.	.
*Xped	*	*
4d- 4E-	4b--)	]
=93	=93	=93
*ped	*	*
4AA-'<	8A-L	.
.	16r	.
.	16g-^Jk	.
4c 4G- 4E-	12g-L	.
.	12a-	.
.	12g-J	.
*Xped	*	*
4r	8fnL	.
.	8e-J	.
=94	=94	=94
!	!LO:TX:b:i:t=Cre _:problem:dynamics with extention lines	!
*ped	*	*
4AA- 4AAA-	8A-L	.
.	16r	.
.	16b-Jk 16g-	.
4c 4G- 4E-	((12b-/L 12g-/	.
.	12cc	.
.	12b-J)	.
*Xped	*	*
4r	8a-L 8f	.
.	8g-J 8e-	.
=95	=95	=95
*	*^	*
*ped	*	*	*
4AA-' 4AAA-	8A-L)	4ryy	.
.	16r	.	.
!	!LO:TX:b:i:t=scen _:problem:dynamics with extention lines	!	!
.	16ee-Jk 16g-	.	.
4c: 4G-: 4E-: 4AA-:	(12ee-L	4g-^	.
.	12ff	.	.
.	12ee-J)	.	.
*Xped	*	*	*
4r	(<8dd-L 8f	4ryy	.
.	8ccJ 8e-	.	.
=96	=96	=96	=96
!	!LO:TX:b:i:t=do:problem:dynamics with extention lines (ending)	!	!
*ped	*	*	*
4AA-' 4AAA-	8A-)	4ryy	.
.	16r	.	.
.	(16gg-' 16b--	.	.
4g-: 4c: 4E-:	12gg-L	4b--^	.
.	12aa-	.	.
.	12gg-J	.	.
*Xped	*	*	*
4r	8ffL 8a-	4ryy	.
.	8ee-J 8g-)	.	.
*	*v	*v	*
!!LO:LB:g=original
=97	=97	=97
*ped	*	*
4AA-' 4AAA-	8r	.
.	16r	ff
.	(16gg-^<KL	.
4g-: 4c: 4E-:	8..b--)	.
.	(32gg-^<kk	.
4r	8..b--)	.
.	(32gg-^<Jkk	.
=98	=98	=98
2.r	8..b--L)	.
.	(32gg-^<kk	.
.	8..b--)	.
.	(32gg-^<kk	.
*Xped	*	*
.	8..a-)	>
.	(32ffJkk	.
=99	=99	=99
!	!LO:TX:b:i:t=Accellerando.	!
2.r	8..gnL)	.
.	(32eenkk	.
.	8..g-)	.
.	(32ee-kk	.
.	8..f)	.
.	(32ddnJkk	.
=100	=100	=100
2.r	8..f-\L)	.
!	!LO:TX:b:i:t=Ritenuto.	!
.	(32dd-kk	.
.	8..e-)	.
.	(32dd-kk	.
.	8..e-)	.
.	(>32dd-Jkk	.
=101	=101	=101
*	*^	*
!	!LO:TX:b:i:t=A tempo.	!	!
4FF'	4.dd-	4.e-^	.
4c 4F	.	.	.
.	8anL	8g-L	.
4c 4F	8dd-	8f	.
.	8aJ	8e-J	.
=102	=102	=102	=102
4BB-	8.anL	8.e-^L	.
.	16b-Jk	16d-Jk	.
4B- 4F	4b-')	4d-	.
4d- 4E-	4b-^	4gn	.
!!LO:PB:g=original
=103	=103	=103	=103
*ped	*	*	*
4AA-	(4.ff	4.a-	<
4g- 4A-	.	.	.
.	8ccL	8b--L	.
4g- 4A-	8ff	8a-	.
*Xped	*	*	*
.	8ccJ	8g-J	.
=104	=104	=104	=104
4D-	8.ccL	8.g-L	.
.	16dd-Jk	16fJk	.
4d- 4A-	4dd-)	4f	.
4f 4Gn	4dd-^	4bn	.
=105	=105	=105	=105
*ped	*	*	*
4C	(4.aa-	4.cc	.
*clefG2	*	*	*
4b- 4c	.	.	.
.	8eenL	8dd-L	.
4b- 4c	8aa-	8cc	.
.	8eeJ	8b-J	.
*clefF4	*	*	*
=106	=106	=106	=106
*^	*	*	*
4r	2.F	8.eenL	8.b-^L	.
.	.	16ffJk	16anJk	.
4f 4c	.	4ff)	4a	.
4an 4c	.	4ryy	([4fff [4ff	.
.	.	.	.	.
*v	*v	*	*	*
*	*v	*v	*
=107	=107	=107
*ped	*	*
4FF'	8.fffL] 8.ff]	ff
.	16ggg-Jk 16gg-	.
*clefG2	*	*
4an^ 4e- 4c	4ggg-' 4gg-)	.
!	!	!LO:DY:b
4cc 4e-	4an^	.p
*clefF4	*	*
=108	=108	=108
*ped	*	*
4BB-'	(4.cc	.
4d- 4F	.	.
.	8b-/)	.
4d- 4F	(12b-^</L	.
*Xped	*	*
.	12a-	.
.	12g-J)	.
!!LO:LB:g=original
=109	=109	=109
*	*^	*
*ped	*	*	*
!	!LO:TX:a:i:t=Piu agitato e stretto.	!	!
4BB-	(4.dd-^	8fL	.
.	.	16qqa-/	.
.	.	8g-	.
4e- 4F	.	8f	.
.	8anL	8g-	.
4e- 4F	8dd-	8f	.
*Xped	*	*	*
.	8aJ	8e-J	.
=110	=110	=110	=110
*ped	*	*	*
4BB-'	8.anL	8.e-^L	.
.	16b-Jk	16d-Jk	.
4B- 4F	4b-)	4d-	.
4d- 4E-	(12b-L	4gn^	.
*Xped	*	*	*
.	12cc	.	.
.	12b-J	.	.
=111	=111	=111	=111
*ped	*	*	*
4AA-'	4.ff^	8a-L	.
.	.	16qqcc-/	.
.	.	8b--	.
4g- 4c 4A-	.	8a-	.
.	8ccnL	8b--	.
4g- 4c 4A-	8ff	8a-	.
*Xped	*	*	*
.	8ccJ	8g-J	.
=112	=112	=112	=112
*ped	*	*	*
4D-'	8.ccL	8.g-L	.
.	16dd-Jk	16fJk	.
4d- 4A-	4dd-)	4f	.
*Xped	*	*	*
4f 4Gn	(12dd-L	4bn	.
.	12ee-	.	.
.	12dd-J)	.	.
=113	=113	=113	=113
*ped	*	*	*
4C'	(4.aa-	8ccL	.
.	.	16qqee-/	.
.	.	8dd-	.
*clefG2	*	*	*
4b- 4gn 4c	.	8cc	.
.	8eenL	8dd-	.
4b-' 4g' 4c'	8aa-	8cc	.
*Xped	*	*	*
.	8eeJ	8b-J	.
*clefF4	*	*	*
=114	=114	=114	=114
*^	*	*	*
4r	2F	8.eenL	8.b-L	.
.	.	16ffJk	16anJk	.
4f 4c	.	4ff)	4a	.
4ryy	4an: 4c: 4F:	4ryy	(4fff 4ff	ff
*v	*v	*	*	*
*	*v	*v	*
!!LO:LB:g=original
=115	=115	=115
*ped	*	*
4FF	8.aaa-XL 8.aa-X	.
.	16ggg-Jk 16gg-)	.
*clefG2	*	*
4cc^ 4an 4e- 4c	4ggg-' 4gg-	.
*Xped	*	*
*clefF4	*	*
4e- 4c 4F	(4an^	.
=116	=116	=116
*ped	*	*
4BB-	[2.b-)	.
4d- 4F	.	.
*Xped	*	*
4d- 4F	.	.
=117	=117	=117
*ped	*	*
4BB-	(8.b-L]	p
.	16ccJk	.
4e- 4B- 4G-	4cc)	.
*Xped	*	*
4e- 4B- 4G-	4cc^	.
=118	=118	=118
*ped	*	*
4BB-	(8ccL	.
.	8dd-J)	.
4en 4B- 4Gn	[2dd-^	.
*Xped	*	*
4e 4B- 4G	.	.
=119	=119	=119
*ped	*	*
4BB-	(8.dd-L]	.
.	16ccJk	.
4en 4c 4Gn	4.cc^<	.
4e 4c 4G	.	.
*Xped	*	*
.	8b-	.
=120	=120	=120
*ped	*	*
4BB-	(8b-L	.
.	8g-J))	.
4f- 4d- 4G-X	2g-^	.
*Xped	*	*
4f- 4d- 4G-	.	.
=121	=121	=121
*ped	*	*
4BB-	(8ccL	.
.	8b-J)	.
4e- 4c 4G-	(>4.b-^	.
4e- 4c 4G-	.	.
*Xped	*	*
.	8g-	.
=122	=122	=122
.	16qqa-/	.
*^	*	*
*ped	*	*	*
4r	2.BB-	8g-^L	.
.	.	8fJ	.
4d- 4F	.	2f^)	.
*Xped	*	*	*
4d- 4F	.	.	.
*v	*v	*	*
!!LO:LB:g=original
=123	=123	=123
*ped	*	*
4BB-'	(8ccL	.
.	8b-J)	.
4c 4B- 4G-	(>4.b-^<	.
4c 4B- 4G-	.	.
*Xped	*	*
.	8e-	.
=124	=124	=124
.	16qqf/	.
*^	*	*
4r	2.BB-	8e-^L	.
.	.	8d-J	.
4B- 4F	.	2d-^)	.
4B- 4F	.	.	.
*v	*v	*	*
=125	=125	=125
*ped	*	*
4BB-'	(8.b-L	.
.	16ccJk	.
4e- 4B- 4G-	4cc')	.
*Xped	*	*
4e- 4B- 4G-	4cc^	.
=126	=126	=126
*ped	*	*
4BB-'	(8ccL	.
.	8dd-J)	.
4en 4B- 4Gn	[2dd-^<	.
*Xped	*	*
4e 4B- 4G	.	.
=127	=127	=127
*ped	*	*
4BB-'	8.dd-L]	.
.	16ccJk	.
4en 4c 4Gn	(4.cc^	.
4e 4c 4G	.	.
*Xped	*	*
.	8b-	.
=128	=128	=128
*ped	*	*
4BB-'	8b-L	.
.	8g-J	.
4f- 4d- 4G-X	2g-^)	.
*Xped	*	*
4f- 4d- 4G-	.	.
=129	=129	=129
*ped	*	*
4BB-'	(>8ccL	.
.	8b-J	.
!	!LO:TX:b:i:t=riten.	!
4e- 4G-	4.b-^	.
4e- 4G-	.	.
*Xped	*	*
.	8g-	.
=130	=130	=130
.	16qqa-/	.
*ped	*	*
4BB-'	8g-L	.
.	8fJ	.
4dn 4F	[2f^)	.
*Xped	*	*
4d 4F	.	.
!!LO:LB:g=original
=131	=131	=131
*ped	*	*
4BB-'	2.f_	>
4c 4An 4F	.	.
*Xped	*	*
4c 4A 4F	.	.
=132	=132	=132
*ped	*	*
4BB-'	2.f_	.
4dn 4B- 4F	.	.
*Xped	*	*
4d 4B- 4F	.	.
=133	=133	=133
*ped	*	*
4BB-'	(8fL]	pp
.	8ccJ	.
!	!LO:TX:b:i:t=Calando.	!
4e- 4An 4F	4.ddn^<	.
4e- 4A 4F	.	.
.	8cc	.
=134	=134	=134
4e- 4An 4F	8ffL	.
.	8ccJ	.
4e- 4A 4F	4.ddn	.
4e- 4A 4F	.	.
*Xped	*	*
.	8cc)	.
=135	=135	=135
*ped	*	*
4BB-'	(>8ccL	.
.	8b-J	.
4e- 4B- 4G-	4.b-^	.
4e- 4B- 4G-	.	.
*Xped	*	*
.	8g-	.
=136	=136	=136
.	16qqa-/	.
*ped	*	*
4BB-'	8g-L	.
.	8fJ	.
4dn 4B- 4F	[2f^>)	.
*Xped	*	*
4d 4B- 4F	.	.
=137	=137	=137
*ped	*	*
4BB-'	(8fL]	pp
.	8ccJ	.
4e- 4An 4F	4.ddn	.
4e- 4A 4F	.	.
.	8cc	.
=138	=138	=138
4e- 4An 4F	8ffL	.
.	8ccJ	.
4e- 4A 4F	4.ddn	.
4e- 4A 4F	.	.
*Xped	*	*
.	8cc)	.
=139	=139	=139
*ped	*	*
4BB-'	(8ccL	.
.	8b-J	.
4f- 4d- 4G-	4.b-^	.
4f- 4d- 4G-	.	.
.	8g-)	.
!!LO:LB:g=original
=140	=140	=140
!	!LO:TX:a:i:t=Mancando.	!
!	!	!LO:DY:b
(4f-' 4d- 4G-	2.r	pp
4f-' 4d- 4G-	.	.
*Xped	*	*
4en' 4c# 4G-X)	.	.
=141	=141	=141
.	16qqa-/	.
!	!LO:TX:a:i:t=sempre	!
*ped	*	*
4BB-	8g-L	.
.	8fJ	.
4dn 4F	[2f^	.
4d 4F	.	.
!!LO:LB:g=original
=142	=142	=142
!	!LO:TX:a:i:t=rallent.	!
4dn 4F	2.f_	.
4d 4F	.	.
*Xped	*	*
4d 4F	.	.
=143	=143	=143
*ped	*	*
4FF'	2.f]	.
4c 4An 4F	.	.
*Xped	*	*
4c 4A 4F	.	.
=144	=144	=144
*ped	*	*
4DDn'	[2.f^>	.
4dn 4An 4F	.	.
*Xped	*	*
4d 4A 4F	.	.
=145	=145	=145
*ped	*	*
!	!	!LO:DY:b
4BBB-'	2.f]	fz
4dn 4B- 4Dn	.	p
4d 4B- 4D	.	.
=146	=146	=146
!	!LO:TX:a:i:t=smorz.	!
4dn 4B- 4Dn	2.f	.
4d 4B- 4D	.	.
4d 4B- 4D	.	.
=147	=147	=147
2.r	(8cc/L	.
.	8b-J	.
.	4.b-/	.
.	8g-	.
=148	=148	=148
.	16qqa-/	.
2.r	8g-^L	.
.	8fJ	.
!	!LO:TX:B:t=FINE.	!
.	2f^;)	.
==	==	==
*-	*-	*-
!!title: @{OTL}; @{OPS} @{ONM} publisher: @{PPR}
!!!RDF**kern: > = above
!!!RDF**kern: < = below
!!!RDF**dynam: < = "Cres.",fontstyle="italic"
!!!RDF**dynam: > = "Dim.",fontstyle="italic"
!!!ENC:Jacek Iwaszko
!!!END:2018-01-10
!!!EED2: Tomasz Sierawski
!!!EST2: revision finished 2019-01-03
!!!rism-genre: Mazurka
!!!rism-key: B-flat minor
!!!rism-opus: op.  24, no. 4
!!!rism-title: Mazurka in B-flat minor op.  24, no. 4
!!!rism-permalink: https://opac.rism.info/search?id=1001015163&View=rism
!!!rism-773a-OPR: 1001015153
!!!rism-parent-permalink: https://opac.rism.info/search?id=1001015153&View=rism
